X:415
T:Paddy the Weaver
R:jig
H:Also in G, #421
Z:hn-jig-415
M:6/8
L:1/8
K:D
ed | c2A Aed | c2A Aed | c2A ABA | F2D Ded |
c2A Aed | c2A A2e | fef gec | edc d :|
|: ze | ~f3 gab | agf efg | f2d ded | c2A A2e |
fef gab | agf efg | fef gec | edc d :|

